X:1
T:Sonata in D Minor
C:D. Scarlatti
C:K.1 L.366
Z:Evan S.
K:Dm
M:C
Q:"Allegro" 1/4=120
L:1/16
V:1
defg aA^cA d6 e2 | fdge afed ^c2a2 a4 | 
agfe dcBA B2g2 g4 | gfed cBAG A2f2 f4 | 
fedc BAGF G2e2 e4 | ed^c=B AGFE FDGE AFED |
^CA,D=B, ECFD GEAF =BG^cA | dBe^c fdge a8 | 

